icons/svg/additional/hgv_yes.svg

<?xml version="1.0" encoding="UTF-8" standalone="no"?>
<!-- Created with Inkscape (http://www.inkscape.org/) -->

<svg
   xmlns:dc="http://purl.org/dc/elements/1.1/"
   xmlns:cc="http://creativecommons.org/ns#"
   xmlns:rdf="http://www.w3.org/1999/02/22-rdf-syntax-ns#"
   xmlns:svg="http://www.w3.org/2000/svg"
   xmlns="http://www.w3.org/2000/svg"
   xmlns:sodipodi="http://sodipodi.sourceforge.net/DTD/sodipodi-0.dtd"
   xmlns:inkscape="http://www.inkscape.org/namespaces/inkscape"
   version="1.0"
   width="580"
   height="580"
   id="svg2"
   sodipodi:version="0.32"
   inkscape:version="0.92.3 (2405546, 2018-03-11)"
   sodipodi:docname="hgv_yes.svg"
   inkscape:output_extension="org.inkscape.output.svg.inkscape">
  <metadata
     id="metadata2975">
    <rdf:RDF>
      <cc:Work
         rdf:about="">
        <dc:format>image/svg+xml</dc:format>
        <dc:type
           rdf:resource="http://purl.org/dc/dcmitype/StillImage" />
        <cc:license
           rdf:resource="http://web.resource.org/cc/PublicDomain" />
        <dc:language>en</dc:language>
      </cc:Work>
    </rdf:RDF>
  </metadata>
  <sodipodi:namedview
     inkscape:window-height="1006"
     inkscape:window-width="1920"
     inkscape:pageshadow="2"
     inkscape:pageopacity="0.0"
     guidetolerance="10.0"
     gridtolerance="10.0"
     objecttolerance="10.0"
     borderopacity="1.0"
     bordercolor="#666666"
     pagecolor="#ffffff"
     id="base"
     inkscape:zoom="0.92167715"
     inkscape:cx="155.80638"
     inkscape:cy="321.50607"
     inkscape:window-x="1920"
     inkscape:window-y="0"
     inkscape:current-layer="svg2"
     showgrid="false"
     inkscape:window-maximized="1" />
  <defs
     id="defs4">
    <inkscape:perspective
       sodipodi:type="inkscape:persp3d"
       inkscape:vp_x="0 : 290 : 1"
       inkscape:vp_y="0 : 1000 : 0"
       inkscape:vp_z="580 : 290 : 1"
       inkscape:persp3d-origin="290 : 193.33333 : 1"
       id="perspective2441" />
  </defs>
  <g
     id="g1327">
    <path
       d="M 66.275,1.768 C 24.94,1.768 1.704,23.139 1.704,66.804 L 1.704,516.927 C 1.704,557.771 22.599,579.156 63.896,579.156 L 515.92,579.156 C 557.227,579.156 578.149,558.841 578.149,516.927 L 578.149,66.804 C 578.149,24.203 557.227,1.768 514.628,1.768 C 514.624,1.768 66.133,1.625 66.275,1.768 z "
       style="fill:#111;stroke:#eee;stroke-width:3.40799999"
       id="path1329" />
  </g>
  <g
     id="g4372"
     transform="translate(-130.0802,122.26983)" />
  <path
     inkscape:connector-curvature="0"
     style="fill:#ffffff;fill-opacity:1;fill-rule:evenodd;stroke:none;stroke-width:1"
     d="M 205.16955,158.59284 V 316.23456 H 540.35453 V 158.59284 Z m -27.31145,41.67529 -98.475875,6.78823 C 62.681231,208.32107 67.772138,203.79125 49.307684,252.79531 31.362589,298.76589 34.389567,282.76392 34.58291,307.0059 v 54.2459 c 0.148459,14.18465 2.28415,17.68134 17.682785,17.79623 2.227788,-71.60027 104.752345,-71.84541 106.794485,0.41844 l 213.18442,0.12629 c -0.10284,-18.6266 7.76545,-32.8186 20.3679,-43.11484 l -214.7544,-0.17551 z m -33.36577,23.94743 -0.84974,57.79573 -72.670317,8.49947 C 58.086442,292.18737 57.336634,288.80738 62.04794,277.3367 L 76.071739,239.93989 C 79.593435,228.348 79.676459,228.2851 89.67067,227.61556 Z M 105.64795,346.9982 c -17.36964,0 -31.450515,14.08088 -31.450514,31.45052 -10e-7,17.36964 14.080874,31.45052 31.450514,31.45052 17.36965,0 31.45052,-14.08087 31.45052,-31.45052 0,-17.36965 -14.08087,-31.45052 -31.45052,-31.45052 z m 319.99604,0.10905 c -17.30942,-1e-5 -31.34148,14.03205 -31.34148,31.34147 0,17.30942 14.03206,31.34148 31.34148,31.34147 17.30942,0 31.34146,-14.03205 31.34146,-31.34147 0,-17.30942 -14.03204,-31.34147 -31.34146,-31.34147 z m 33.12244,-10.54906 c 13.05823,10.4701 20.42379,25.37492 20.29727,43.09664 l 31.08267,0.0204 35.40088,-12.53196 -0.10488,-30.56255 z"
     id="path2"
     sodipodi:nodetypes="cccccccccccccccccccccccsssssssssscccccc" />
</svg>

<svg width="580" height="580" viewBox="0 0 580 580" fill="none" xmlns="http://www.w3.org/2000/svg">
<path fill-rule="evenodd" clip-rule="evenodd" d="M205.17 158.593V316.234H540.355V158.593H205.17ZM177.858 200.268L79.3822 207.056C62.6813 208.321 67.7722 203.791 49.3077 252.795C31.3626 298.766 34.3896 282.764 34.5829 307.006V361.252C34.7314 375.436 36.8671 378.933 52.2657 379.048C54.4935 307.448 157.018 307.203 159.06 379.466L372.245 379.593C372.142 360.966 380.01 346.774 392.613 336.478L177.858 336.302V200.268ZM144.492 224.215L143.643 282.011L70.9723 290.511C58.0865 292.187 57.3367 288.807 62.048 277.337L76.0718 239.94C79.5935 228.348 79.6765 228.285 89.6707 227.615L144.492 224.215ZM105.648 346.998C88.2783 346.998 74.1975 361.079 74.1975 378.449C74.1975 395.818 88.2783 409.899 105.648 409.899C123.018 409.899 137.098 395.818 137.098 378.449C137.098 361.079 123.018 346.998 105.648 346.998ZM425.644 347.107C408.335 347.107 394.303 361.139 394.303 378.449C394.303 395.758 408.335 409.79 425.644 409.79C442.953 409.79 456.985 395.758 456.985 378.449C456.985 361.139 442.953 347.107 425.644 347.107ZM458.766 336.558C471.825 347.028 479.19 361.933 479.064 379.655L510.146 379.675L545.547 367.143L545.442 336.581L458.766 336.558Z" fill="white"/>
</svg>
